X:769
T:Pipe on the hob
T:Burns's Dream
R:Jig
O:Ireland
B:Joyce, P. W.; "Old Irish Folk Music and Songs"
B:O'Neill's 705
S:My arrangement from various sources- mostly O'Neill's
Z:Transcription, arrangement, chords:Mike Long
M:6/8
L:1/8
K:G
B|\
"Am"c3 {f}edc|"Am"edc "G"BAG|"Am"ABA {a}"G"g2e|"G"eaa ged|\
"Am"c3 {f}edc|"Am"edc "G"deg|"Em"age "G"dBe|"Am"ABA A2:|
|:f|\
"G"g3 {a}gea|age edB|"Am"ABA {a}"G"g2e|aba gef|\
"G"g3 {a}gea|age deg|"Em"age "G"dBe|"Am"ABA A2:|
|:B|\
"Am"c2c "G"dcd|"Am"ecA AGE|"Am"c2c "G"dcd|"Am"ecA A2B|\
"Am"c2c "G"dcd|"Am"e2e "G"gab|"Em"age "G"dBe|"Am"ABA A2:|
